X: 28025
T: Moving In Old Decency
R: reel
M: 4/4
K: Edorian
Beed Beed|Beed B2AG|FAdA BAdA|FAdB A2FA|
Beed Beed|Beed B2AF|G2GF GBdb|AGED E2:|
Beef edBA|Bdef gfed|fddc dcBa|Bdef gfed|
Beef edBA|Bdef gedB|G2GF GBdB|AGED E2:|

